X: 29263
T: New Mown Meadows, The
R: reel
M: 4/4
K: Edorian
|:BE~E2 FEFA|(3Bcd cA BAFA|BE~E2 FEFG|ABAF EDFA|
BEED EFGA|(3Bcd cd BAFA|~d3B ~c3B|1 AcBA FEFA:|2 AcBA FA (3Bcd||
|:e2ce fecf|e2cA BAFA|e2ce fecB|AcBA FAEA|
e2ce fecf|e2cA BAFA|~d3B ~c3B|1 AcBA FA (3Bcd:|2 AcBA FEFA||

